; G-Code generated by Simplify3D(R) Version 4.0.0
; Nov 2, 2020 at 7:32:28 PM
; Settings Summary
;   processName,Process1
;   applyToModels,BearingMount,BearingMount(2),BearingMount(3),BearingMount(4)
;   profileName,PrusaMK2
;   profileVersion,2020-09-03 15:36:45
;   baseProfile,Wanhao Duplicator i3 (modified)
;   printMaterial,PLA
;   printQuality,Medium
;   printExtruders,
;   extruderName,Primary Extruder
;   extruderToolheadNumber,0
;   extruderDiameter,0.4
;   extruderAutoWidth,1
;   extruderWidth,0.48
;   extrusionMultiplier,0.9
;   extruderUseRetract,1
;   extruderRetractionDistance,7
;   extruderExtraRestartDistance,0
;   extruderRetractionZLift,0
;   extruderRetractionSpeed,3600
;   extruderUseCoasting,1
;   extruderCoastingDistance,0.2
;   extruderUseWipe,1
;   extruderWipeDistance,5
;   primaryExtruder,0
;   layerHeight,0.2
;   topSolidLayers,5
;   bottomSolidLayers,3
;   perimeterOutlines,2
;   printPerimetersInsideOut,1
;   startPointOption,2
;   startPointOriginX,0
;   startPointOriginY,0
;   sequentialIslands,0
;   spiralVaseMode,0
;   firstLayerHeightPercentage,1
;   firstLayerWidthPercentage,140
;   firstLayerUnderspeed,0.8
;   useRaft,0
;   raftExtruder,0
;   raftTopLayers,2
;   raftBaseLayers,1
;   raftOffset,3
;   raftSeparationDistance,0.2
;   raftTopInfill,100
;   aboveRaftSpeedMultiplier,0.3
;   useSkirt,0
;   skirtExtruder,0
;   skirtLayers,1
;   skirtOutlines,1
;   skirtOffset,4
;   usePrimePillar,0
;   primePillarExtruder,999
;   primePillarWidth,12
;   primePillarLocation,7
;   primePillarSpeedMultiplier,1
;   useOozeShield,0
;   oozeShieldExtruder,999
;   oozeShieldOffset,2
;   oozeShieldOutlines,1
;   oozeShieldSidewallShape,1
;   oozeShieldSidewallAngle,30
;   oozeShieldSpeedMultiplier,1
;   infillExtruder,0
;   internalInfillPattern,Rectilinear
;   externalInfillPattern,Rectilinear
;   infillPercentage,30
;   outlineOverlapPercentage,25
;   infillExtrusionWidthPercentage,125
;   minInfillLength,5
;   infillLayerInterval,1
;   internalInfillAngles,45,-45
;   overlapInternalInfillAngles,0
;   externalInfillAngles,45,-45
;   generateSupport,1
;   supportExtruder,0
;   supportInfillPercentage,20
;   supportExtraInflation,0
;   supportBaseLayers,0
;   denseSupportExtruder,0
;   denseSupportLayers,0
;   denseSupportInfillPercentage,70
;   supportLayerInterval,1
;   supportHorizontalPartOffset,0.3
;   supportUpperSeparationLayers,1
;   supportLowerSeparationLayers,1
;   supportType,0
;   supportGridSpacing,4
;   maxOverhangAngle,45
;   supportAngles,0
;   temperatureName,Primary Extruder,Heated Bed
;   temperatureNumber,0,0
;   temperatureSetpointCount,1,1
;   temperatureSetpointLayers,1,1
;   temperatureSetpointTemperatures,190,60
;   temperatureStabilizeAtStartup,1,1
;   temperatureHeatedBed,0,1
;   temperatureRelayBetweenLayers,0,0
;   temperatureRelayBetweenLoops,0,0
;   fanLayers,1
;   fanSpeeds,100
;   blipFanToFullPower,0
;   adjustSpeedForCooling,1
;   minSpeedLayerTime,15
;   minCoolingSpeedSlowdown,20
;   increaseFanForCooling,0
;   minFanLayerTime,45
;   maxCoolingFanSpeed,100
;   increaseFanForBridging,0
;   bridgingFanSpeed,100
;   use5D,1
;   relativeEdistances,0
;   allowEaxisZeroing,1
;   independentExtruderAxes,0
;   includeM10123,0
;   stickySupport,1
;   applyToolheadOffsets,0
;   gcodeXoffset,0
;   gcodeYoffset,0
;   gcodeZoffset,0
;   overrideMachineDefinition,1
;   machineTypeOverride,0
;   strokeXoverride,200
;   strokeYoverride,200
;   strokeZoverride,180
;   originOffsetXoverride,0
;   originOffsetYoverride,0
;   originOffsetZoverride,0
;   homeXdirOverride,-1
;   homeYdirOverride,-1
;   homeZdirOverride,-1
;   flipXoverride,1
;   flipYoverride,-1
;   flipZoverride,1
;   toolheadOffsets,0,0|0,0|0,0|0,0|0,0|0,0
;   overrideFirmwareConfiguration,1
;   firmwareTypeOverride,RepRap (Marlin/Repetier/Sprinter)
;   GPXconfigOverride,r2
;   baudRateOverride,250000
;   overridePrinterModels,1
;   printerModelsOverride
;   startingGcode,G28 ; home all axes,G1 X5 Y5 Z0.2 F3000 ; get ready to prime,G92 E0 ; reset extrusion distance,G1 X160 E15 F600 ; prime nozzle,G1 X80 F9000 ; Sweep right to cut any strings
;   layerChangeGcode,
;   retractionGcode,
;   toolChangeGcode,
;   endingGcode,M104 S0 ; extruder heater off,M140 S0 ; bed heater off,G91 ; relative positioning,G1 Z+0.5 E-1 X-20 Y-20 F6000 ; move Z up and retract filament 1mm,M106 S255 ; fan at 100% to cool nozzle,G28 X Y ; home all axes,M84 ; steppers off,G4 P120000 ; wait 2 minutes (120 seconds),M106 S0 ; fan off
;   exportFileFormat,gcode
;   celebration,0
;   celebrationSong,Random Song
;   postProcessing,
;   defaultSpeed,3600
;   outlineUnderspeed,0.2
;   solidInfillUnderspeed,0.8
;   supportUnderspeed,0.8
;   rapidXYspeed,2400
;   rapidZspeed,1002
;   minBridgingArea,50
;   bridgingExtraInflation,0
;   bridgingExtrusionMultiplier,1
;   bridgingSpeedMultiplier,1
;   useFixedBridgingAngle,0
;   fixedBridgingAngle,0
;   applyBridgingToPerimeters,0
;   filamentDiameters,1.75|1.75|1.75|1.75|1.75|1.75
;   filamentPricesPerKg,22|22|22|22|22|22
;   filamentDensities,1.25|1.25|1.25|1.25|1.25|1.25
;   useMinPrintHeight,0
;   minPrintHeight,0
;   useMaxPrintHeight,0
;   maxPrintHeight,0
;   useDiaphragm,0
;   diaphragmLayerInterval,20
;   robustSlicing,1
;   mergeAllIntoSolid,0
;   onlyRetractWhenCrossingOutline,1
;   retractBetweenLayers,1
;   useRetractionMinTravel,0
;   retractionMinTravel,3
;   retractWhileWiping,1
;   onlyWipeOutlines,1
;   avoidCrossingOutline,0
;   maxMovementDetourFactor,3
;   toolChangeRetractionDistance,12
;   toolChangeExtraRestartDistance,-0.5
;   toolChangeRetractionSpeed,600
;   externalThinWallType,0
;   internalThinWallType,2
;   thinWallAllowedOverlapPercentage,10
;   singleExtrusionMinLength,1
;   singleExtrusionMinPrintingWidthPercentage,50
;   singleExtrusionMaxPrintingWidthPercentage,200
;   singleExtrusionEndpointExtension,0.2
;   horizontalSizeCompensation,0
G90
M82
M106 S255
M140 S60
M190 S60
M104 S190 T0
M109 S190 T0
G28 ; home all axes
G1 X5 Y5 Z0.2 F3000 ; get ready to prime
G92 E0 ; reset extrusion distance
G1 X160 E15 F600 ; prime nozzle
G1 X80 F9000 ; Sweep right to cut any strings
G92 E0
G1 E-7.0000 F3600
G1 Z0.002 F1002
; process Process1
; layer 1, Z = 0.002
T0
; tool H0.200 W0.672
; inner perimeter
G1 X49.508 Y33.508 F2400
G1 E0.0000 F1080
G92 E0
G1 X96.492 Y33.508 E2.3628 F1728
G1 X96.492 Y96.492 E5.5302
G1 X49.508 Y96.492 E7.8930
G1 X49.508 Y33.708 E11.0504
G1 X49.508 Y33.508 F1728
; outer perimeter
G1 X48.836 Y32.836 F2400
G92 E0
G1 X97.164 Y32.836 E2.4304 F576
G1 X97.164 Y97.164 E5.6654
G1 X48.836 Y97.164 E8.0958
G1 X48.836 Y33.036 E11.3207
G1 X48.836 Y32.836 F576
G1 X55.836 Y32.836 F3600
; inner perimeter
G1 X63.521 Y40.623 F2400
G92 E0
G1 X62.436 Y42.283 E0.0997 F1728
G1 X61.639 Y44.100 E0.1995
G1 X61.152 Y46.023 E0.2993
G1 X60.989 Y48.000 E0.3991
G1 X61.152 Y49.977 E0.4988
G1 X61.639 Y51.900 E0.5986
G1 X62.436 Y53.717 E0.6983
G1 X63.521 Y55.378 E0.7981
G1 X64.865 Y56.837 E0.8979
G1 X66.431 Y58.056 E0.9976
G1 X68.175 Y59.000 E1.0974
G1 X70.052 Y59.644 E1.1972
G1 X72.008 Y59.970 E1.2969
G1 X73.992 Y59.970 E1.3967
G1 X75.949 Y59.644 E1.4965
G1 X77.825 Y59.000 E1.5962
G1 X79.570 Y58.055 E1.6960
G1 X81.135 Y56.837 E1.7957
G1 X82.479 Y55.377 E1.8955
G1 X83.564 Y53.717 E1.9953
G1 X84.361 Y51.900 E2.0950
G1 X84.848 Y49.977 E2.1948
G1 X85.011 Y48.000 E2.2946
G1 X84.848 Y46.023 E2.3943
G1 X84.361 Y44.100 E2.4941
G1 X83.564 Y42.283 E2.5939
G1 X82.478 Y40.622 E2.6936
G1 X81.135 Y39.163 E2.7934
G1 X79.569 Y37.944 E2.8931
G1 X77.825 Y37.000 E2.9929
G1 X75.948 Y36.356 E3.0927
G1 X73.992 Y36.030 E3.1924
G1 X72.008 Y36.030 E3.2922
G1 X70.051 Y36.356 E3.3920
G1 X68.175 Y37.000 E3.4917
G1 X66.430 Y37.945 E3.5915
G1 X64.865 Y39.163 E3.6913
G1 X63.657 Y40.475 E3.7810
G1 X63.521 Y40.623 F1728
; outer perimeter
G1 X64.053 Y41.037 F2400
G92 E0
G1 X63.029 Y42.604 E0.0941 F576
G1 X62.277 Y44.319 E0.1883
G1 X61.817 Y46.134 E0.2825
G1 X61.663 Y48.000 E0.3767
G1 X61.818 Y49.866 E0.4708
G1 X62.277 Y51.681 E0.5650
G1 X63.029 Y53.396 E0.6591
G1 X64.054 Y54.964 E0.7533
G1 X65.322 Y56.341 E0.8475
G1 X66.799 Y57.491 E0.9416
G1 X68.446 Y58.382 E1.0358
G1 X70.217 Y58.990 E1.1300
G1 X72.064 Y59.298 E1.2241
G1 X73.936 Y59.298 E1.3183
G1 X75.783 Y58.990 E1.4124
G1 X77.554 Y58.382 E1.5066
G1 X79.201 Y57.491 E1.6008
G1 X80.679 Y56.341 E1.6949
G1 X81.947 Y54.963 E1.7891
G1 X82.971 Y53.396 E1.8833
G1 X83.723 Y51.681 E1.9774
G1 X84.183 Y49.866 E2.0716
G1 X84.337 Y48.000 E2.1658
G1 X84.182 Y46.134 E2.2599
G1 X83.723 Y44.319 E2.3541
G1 X82.971 Y42.604 E2.4482
G1 X81.946 Y41.036 E2.5424
G1 X80.678 Y39.659 E2.6366
G1 X79.201 Y38.509 E2.7307
G1 X77.554 Y37.618 E2.8249
G1 X75.783 Y37.010 E2.9191
G1 X73.936 Y36.702 E3.0132
G1 X72.063 Y36.702 E3.1074
G1 X70.217 Y37.010 E3.2015
G1 X68.446 Y37.618 E3.2957
G1 X66.799 Y38.509 E3.3899
G1 X65.321 Y39.659 E3.4840
G1 X64.189 Y40.890 E3.5681
G1 X64.053 Y41.037 F576
G1 X63.029 Y42.604 F3600
G1 X62.277 Y44.319 F3600
G1 X61.817 Y46.134 F3600
G1 X61.703 Y47.512 F3600
; inner perimeter
G1 X55.686 Y78.526 F2400
G92 E0
G1 X55.250 Y78.488 E0.0220 F1728
G1 X54.814 Y78.526 E0.0440
G1 X54.391 Y78.640 E0.0661
G1 X53.994 Y78.825 E0.0881
G1 X53.635 Y79.076 E0.1101
G1 X53.326 Y79.385 E0.1321
G1 X53.075 Y79.744 E0.1541
G1 X52.890 Y80.141 E0.1762
G1 X52.776 Y80.564 E0.1982
G1 X52.738 Y81.000 E0.2202
G1 X52.776 Y81.436 E0.2422
G1 X52.890 Y81.859 E0.2642
G1 X53.075 Y82.256 E0.2862
G1 X53.326 Y82.615 E0.3083
G1 X53.635 Y82.924 E0.3303
G1 X53.994 Y83.175 E0.3523
G1 X54.391 Y83.360 E0.3743
G1 X54.814 Y83.474 E0.3963
G1 X55.250 Y83.512 E0.4184
G1 X55.686 Y83.474 E0.4404
G1 X56.109 Y83.360 E0.4624
G1 X56.506 Y83.175 E0.4844
G1 X56.865 Y82.924 E0.5064
G1 X57.174 Y82.615 E0.5285
G1 X57.425 Y82.256 E0.5505
G1 X57.610 Y81.859 E0.5725
G1 X57.724 Y81.436 E0.5945
G1 X57.762 Y81.000 E0.6165
G1 X57.724 Y80.564 E0.6385
G1 X57.610 Y80.141 E0.6606
G1 X57.425 Y79.744 E0.6826
G1 X57.174 Y79.385 E0.7046
G1 X56.865 Y79.076 E0.7266
G1 X56.506 Y78.825 E0.7486
G1 X56.109 Y78.640 E0.7707
G1 X55.879 Y78.578 E0.7826
G1 X55.686 Y78.526 F1728
; outer perimeter
G1 X55.569 Y79.191 F2400
G92 E0
G1 X55.250 Y79.163 E0.0161 F576
G1 X54.931 Y79.191 E0.0322
G1 X54.622 Y79.274 E0.0483
G1 X54.331 Y79.409 E0.0644
G1 X54.069 Y79.593 E0.0805
G1 X53.843 Y79.819 E0.0966
G1 X53.659 Y80.081 E0.1127
G1 X53.523 Y80.372 E0.1288
G1 X53.441 Y80.681 E0.1449
G1 X53.413 Y81.000 E0.1611
G1 X53.441 Y81.319 E0.1772
G1 X53.524 Y81.628 E0.1933
G1 X53.659 Y81.919 E0.2094
G1 X53.843 Y82.181 E0.2255
G1 X54.069 Y82.407 E0.2416
G1 X54.331 Y82.591 E0.2577
G1 X54.622 Y82.726 E0.2738
G1 X54.931 Y82.809 E0.2899
G1 X55.250 Y82.837 E0.3060
G1 X55.569 Y82.809 E0.3221
G1 X55.878 Y82.726 E0.3382
G1 X56.169 Y82.591 E0.3543
G1 X56.431 Y82.407 E0.3704
G1 X56.657 Y82.181 E0.3865
G1 X56.841 Y81.919 E0.4026
G1 X56.977 Y81.628 E0.4187
G1 X57.059 Y81.319 E0.4349
G1 X57.087 Y81.000 E0.4510
G1 X57.059 Y80.681 E0.4671
G1 X56.976 Y80.372 E0.4832
G1 X56.841 Y80.081 E0.4993
G1 X56.657 Y79.819 E0.5154
G1 X56.431 Y79.593 E0.5315
G1 X56.169 Y79.409 E0.5476
G1 X55.878 Y79.273 E0.5637
G1 X55.762 Y79.242 E0.5697
G1 X55.569 Y79.191 F576
G1 X55.250 Y79.163 F3600
G1 X54.931 Y79.191 F3600
G1 X54.622 Y79.274 F3600
G1 X54.331 Y79.409 F3600
G1 X54.069 Y79.593 F3600
G1 X53.843 Y79.819 F3600
G1 X53.659 Y80.081 F3600
G1 X53.523 Y80.372 F3600
G1 X53.441 Y80.681 F3600
G1 X53.413 Y81.000 F3600
G1 X53.441 Y81.319 F3600
G1 X53.524 Y81.628 F3600
G1 X53.659 Y81.919 F3600
G1 X53.843 Y82.181 F3600
G1 X54.069 Y82.407 F3600
G1 X54.331 Y82.591 F3600
G1 X54.622 Y82.726 F3600
G1 X54.931 Y82.809 F3600
G1 X55.250 Y82.837 F3600
G1 X55.569 Y82.809 F3600
G1 X55.878 Y82.726 F3600
G1 X56.127 Y82.610 F3600
; inner perimeter
G1 X55.686 Y90.026 F2400
G92 E0
G1 X55.250 Y89.988 E0.0220 F1728
G1 X54.814 Y90.026 E0.0440
G1 X54.391 Y90.140 E0.0661
G1 X53.994 Y90.325 E0.0881
G1 X53.635 Y90.576 E0.1101
G1 X53.326 Y90.885 E0.1321
G1 X53.075 Y91.244 E0.1541
G1 X52.890 Y91.641 E0.1761
G1 X52.776 Y92.064 E0.1982
G1 X52.738 Y92.500 E0.2202
G1 X52.776 Y92.936 E0.2422
G1 X52.890 Y93.359 E0.2642
G1 X53.075 Y93.756 E0.2862
G1 X53.326 Y94.115 E0.3083
G1 X53.635 Y94.424 E0.3303
G1 X53.994 Y94.675 E0.3523
G1 X54.391 Y94.860 E0.3743
G1 X54.814 Y94.974 E0.3963
G1 X55.250 Y95.012 E0.4184
G1 X55.686 Y94.974 E0.4404
G1 X56.109 Y94.860 E0.4624
G1 X56.506 Y94.675 E0.4844
G1 X56.865 Y94.424 E0.5064
G1 X57.174 Y94.115 E0.5284
G1 X57.425 Y93.756 E0.5505
G1 X57.610 Y93.359 E0.5725
G1 X57.724 Y92.936 E0.5945
G1 X57.762 Y92.500 E0.6165
G1 X57.724 Y92.064 E0.6385
G1 X57.610 Y91.641 E0.6606
G1 X57.425 Y91.244 E0.6826
G1 X57.174 Y90.885 E0.7046
G1 X56.865 Y90.576 E0.7266
G1 X56.506 Y90.325 E0.7486
G1 X56.109 Y90.140 E0.7707
G1 X55.879 Y90.078 E0.7826
G1 X55.686 Y90.026 F1728
; outer perimeter
G1 X55.569 Y90.691 F2400
G92 E0
G1 X55.250 Y90.663 E0.0161 F576
G1 X54.931 Y90.691 E0.0322
G1 X54.622 Y90.774 E0.0483
G1 X54.331 Y90.909 E0.0644
G1 X54.069 Y91.093 E0.0805
G1 X53.843 Y91.319 E0.0966
G1 X53.659 Y91.581 E0.1127
G1 X53.523 Y91.872 E0.1288
G1 X53.441 Y92.181 E0.1449
G1 X53.413 Y92.500 E0.1611
G1 X53.441 Y92.819 E0.1772
G1 X53.524 Y93.128 E0.1933
G1 X53.659 Y93.419 E0.2094
G1 X53.843 Y93.681 E0.2255
G1 X54.069 Y93.907 E0.2416
G1 X54.331 Y94.091 E0.2577
G1 X54.622 Y94.227 E0.2738
G1 X54.931 Y94.309 E0.2899
G1 X55.250 Y94.337 E0.3060
G1 X55.569 Y94.309 E0.3221
G1 X55.878 Y94.226 E0.3382
G1 X56.169 Y94.091 E0.3543
G1 X56.431 Y93.907 E0.3704
G1 X56.657 Y93.681 E0.3865
G1 X56.841 Y93.419 E0.4026
G1 X56.977 Y93.128 E0.4187
G1 X57.059 Y92.819 E0.4349
G1 X57.087 Y92.500 E0.4510
G1 X57.059 Y92.181 E0.4671
G1 X56.976 Y91.872 E0.4832
G1 X56.841 Y91.581 E0.4993
G1 X56.657 Y91.319 E0.5154
G1 X56.431 Y91.093 E0.5315
G1 X56.169 Y90.909 E0.5476
G1 X55.878 Y90.774 E0.5637
G1 X55.762 Y90.742 E0.5697
G1 X55.569 Y90.691 F576
G1 X55.250 Y90.663 F3600
G1 X54.931 Y90.691 F3600
G1 X54.622 Y90.774 F3600
G1 X54.331 Y90.909 F3600
G1 X54.069 Y91.093 F3600
G1 X53.843 Y91.319 F3600
G1 X53.659 Y91.581 F3600
G1 X53.523 Y91.872 F3600
G1 X53.441 Y92.181 F3600
G1 X53.413 Y92.500 F3600
G1 X53.441 Y92.819 F3600
G1 X53.524 Y93.128 F3600
G1 X53.659 Y93.419 F3600
G1 X53.843 Y93.681 F3600
G1 X54.069 Y93.907 F3600
G1 X54.331 Y94.091 F3600
G1 X54.622 Y94.227 F3600
G1 X54.931 Y94.309 F3600
G1 X55.250 Y94.337 F3600
G1 X55.569 Y94.309 F3600
G1 X55.878 Y94.226 F3600
G1 X56.127 Y94.110 F3600
; inner perimeter
G1 X88.238 Y92.500 F2400
G92 E0
G1 X88.276 Y92.936 E0.0220 F1728
G1 X88.390 Y93.359 E0.0440
G1 X88.575 Y93.756 E0.0661
G1 X88.826 Y94.115 E0.0881
G1 X89.135 Y94.424 E0.1101
G1 X89.494 Y94.675 E0.1321
G1 X89.891 Y94.860 E0.1541
G1 X90.314 Y94.974 E0.1762
G1 X90.750 Y95.012 E0.1982
G1 X91.186 Y94.974 E0.2202
G1 X91.609 Y94.860 E0.2422
G1 X92.006 Y94.675 E0.2642
G1 X92.365 Y94.424 E0.2862
G1 X92.674 Y94.115 E0.3083
G1 X92.925 Y93.756 E0.3303
G1 X93.110 Y93.359 E0.3523
G1 X93.224 Y92.936 E0.3743
G1 X93.262 Y92.500 E0.3963
G1 X93.224 Y92.064 E0.4184
G1 X93.110 Y91.641 E0.4404
G1 X92.925 Y91.244 E0.4624
G1 X92.674 Y90.885 E0.4844
G1 X92.365 Y90.576 E0.5064
G1 X92.006 Y90.325 E0.5285
G1 X91.609 Y90.140 E0.5505
G1 X91.186 Y90.026 E0.5725
G1 X90.750 Y89.988 E0.5945
G1 X90.314 Y90.026 E0.6165
G1 X89.891 Y90.140 E0.6385
G1 X89.494 Y90.325 E0.6606
G1 X89.135 Y90.576 E0.6826
G1 X88.826 Y90.885 E0.7046
G1 X88.575 Y91.244 E0.7266
G1 X88.390 Y91.641 E0.7486
G1 X88.276 Y92.064 E0.7707
G1 X88.256 Y92.301 E0.7826
G1 X88.238 Y92.500 F1728
; outer perimeter
G1 X88.913 Y92.500 F2400
G92 E0
G1 X88.941 Y92.819 E0.0161 F576
